X:12818
T:Partie de Lancier 2
M:6/8
K:D
FBc dcB|FBc dcB|FBc dcB|f5f|cff cff|cff f2f|fgf edc|B6:||A3 FAd|f5 f|f2e d2e|B6|B2c dcB|AFA f3|AAA ABc|1 d6:||2 d3 =c3||B2B GAG|e^de d3|BAB dBd|=cAF DFA|=c=c=c =cBA|f5 e|ded =cBA|BGE D3|B2B GAG|e^de d3|BAB dBd|=c5 d|eee e^de|ddd dcd|fed =cBA|G6:||
